Adwaita++-Dark/actions/16/automated-tasks.svg

<svg height="16" viewBox="0 0 16 16" width="16" xmlns="http://www.w3.org/2000/svg">
  <path d="m8 0a1 1 0 0 0 -1 1 1 1 0 0 0 1 1 1 1 0 0 0 1-1 1 1 0 0 0 -1-1zm0 2h-5.5996094c-.7756 0-1.4003906.8941125-1.4003906 1.6328125v6.6679685c0 .738.6247906 1.699219 1.4003906 1.699219h4.1992188v1h-2.7988282v2h8.3984378v-2h-2.7988284v-1h4.1992184c.775 0 1.400391-.961219 1.400391-1.699219v-6.6679685c0-.7387-.625391-1.6328125-1.400391-1.6328125zm-4.5 2h9c.831 0 1.5.446 1.5 1s-.669 1-1.5 1h-9c-.831 0-1.5-.446-1.5-1s.669-1 1.5-1z" fill="#e6ddff"/>
</svg>

<svg xmlns="http://www.w3.org/2000/svg" width="16" height="16" viewBox="0 0 16 16">
 <defs>
  <style id="current-color-scheme" type="text/css">
   .ColorScheme-Text { color:#E6DDFF; } .ColorScheme-Highlight { color:#4285f4; }
  </style>
 </defs>
 <path style="fill:currentColor" class="ColorScheme-Text" d="M 8 0 A 1 1 0 0 0 7 1 A 1 1 0 0 0 8 2 A 1 1 0 0 0 9 1 A 1 1 0 0 0 8 0 z M 8 2 L 2.4003906 2 C 1.6247906 2 1 2.8941125 1 3.6328125 L 1 10.300781 C 1 11.038781 1.6247906 12 2.4003906 12 L 6.5996094 12 L 6.5996094 13 L 3.8007812 13 L 3.8007812 15 L 12.199219 15 L 12.199219 13 L 9.4003906 13 L 9.4003906 12 L 13.599609 12 C 14.374609 12 15 11.038781 15 10.300781 L 15 3.6328125 C 15 2.8941125 14.374609 2 13.599609 2 L 8 2 z M 3.5 4 L 12.5 4 C 13.331 4 14 4.446 14 5 C 14 5.554 13.331 6 12.5 6 L 3.5 6 C 2.669 6 2 5.554 2 5 C 2 4.446 2.669 4 3.5 4 z"/>
</svg>
